X:583
T:Miss Ross
R:Strathspey
B:The Athole Collection
M:C
L:1/8
K:A
d|c/d/e e2 a>e f2|a<e a>c B2 B>d|c/d/e e2 a<e f>e|c<a e>c B2A:|
d|c<A A>c B<=G G>d|c>A A/B/c/d/ e<A E>d|c<A A>c B<=G G>d|
c<A A/B/c/d/ e2 ea|c<A A>c B<=G G>d|c>A A/B/c/d/ e<a e>d|
c<e a>g b>B B<d|c<a e>c B2A||

